X: 7
T: The Banshee's Wail Over The Mangle Pit
R: jig
M: 6/8
L: 1/8
K: Edor
AB|c2A BcB|AGE GAB|c2A Bed|BAA A2B|
c2A BcB|AGE GAB|cde dBG|BAA A2:|
f|g2e age|dBG Gef|g2e agf|efg a2b|
g2e age|dBG GAB|c2A Bed|BAA A2:|


Tune 131	Setting 131

